src/assets/logo-inner-white.svg

<svg width="87" height="20" viewBox="0 0 87 20" fill="none" xmlns="http://www.w3.org/2000/svg">
<path d="M2.25352 19.7183H0V0H2.25352V19.7183Z" fill="white"/>
<path d="M5.35871 19.7183V5.6338H7.1897L7.47139 7.1831H7.61223C7.98782 6.71362 8.5512 6.29108 9.30237 5.91549C10.0535 5.53991 10.8986 5.35211 11.8376 5.35211C12.908 5.35211 13.8658 5.60563 14.7108 6.11268C15.5747 6.60094 16.2507 7.29577 16.739 8.19718C17.2273 9.09859 17.4714 10.1221 17.4714 11.2676V19.7183H15.3587V11.2676C15.3587 10.5352 15.1897 9.86854 14.8517 9.26761C14.5136 8.66667 14.0535 8.19718 13.4714 7.85915C12.8892 7.50235 12.2507 7.32394 11.5559 7.32394C10.8235 7.32394 10.1381 7.51174 9.49956 7.88732C8.87984 8.24413 8.38219 8.723 8.0066 9.32394C7.64979 9.92488 7.47139 10.5728 7.47139 11.2676V19.7183H5.35871Z" fill="white"/>
<path d="M20.2971 19.7183V5.6338H22.1281L22.4098 7.1831H22.5506C22.9262 6.71362 23.4896 6.29108 24.2408 5.91549C24.9919 5.53991 25.837 5.35211 26.776 5.35211C27.8464 5.35211 28.8041 5.60563 29.6492 6.11268C30.5131 6.60094 31.1891 7.29577 31.6774 8.19718C32.1656 9.09859 32.4098 10.1221 32.4098 11.2676V19.7183H30.2971V11.2676C30.2971 10.5352 30.1281 9.86854 29.79 9.26761C29.452 8.66667 28.9919 8.19718 28.4098 7.85915C27.8276 7.50235 27.1891 7.32394 26.4943 7.32394C25.7619 7.32394 25.0764 7.51174 24.4379 7.88732C23.8182 8.24413 23.3206 8.723 22.945 9.32394C22.5882 9.92488 22.4098 10.5728 22.4098 11.2676V19.7183H20.2971Z" fill="white"/>
<path d="M41.151 20C39.8927 20 38.7472 19.6901 37.7143 19.0704C36.6815 18.4507 35.8646 17.5869 35.2636 16.4789C34.6815 15.3709 34.3904 14.1033 34.3904 12.6761C34.3904 11.2488 34.6815 9.98122 35.2636 8.87324C35.8646 7.76526 36.6815 6.90141 37.7143 6.28169C38.7472 5.66197 39.8927 5.35211 41.151 5.35211C42.3528 5.35211 43.4514 5.64319 44.4467 6.22535C45.442 6.80751 46.2214 7.61502 46.7848 8.64789C47.3481 9.66197 47.6298 10.8169 47.6298 12.1127C47.6298 12.8638 47.5829 13.3803 47.489 13.662H36.5031C36.6345 14.9765 37.1416 16.0376 38.0242 16.8451C38.9068 17.6338 39.9491 18.0282 41.151 18.0282C41.996 18.0282 42.7472 17.831 43.4045 17.4366C44.0805 17.0423 44.597 16.4883 44.9538 15.7746H47.2073C46.719 17.1268 45.9491 18.169 44.8974 18.9014C43.8646 19.6338 42.6157 20 41.151 20ZM45.5172 11.6901C45.442 10.4131 44.9913 9.37089 44.165 8.56338C43.3575 7.73709 42.3528 7.32394 41.151 7.32394C39.8927 7.32394 38.8411 7.73709 37.996 8.56338C37.151 9.37089 36.6533 10.4131 36.5031 11.6901H45.5172Z" fill="white"/>
<path d="M49.5962 19.7183V5.6338H51.4271L51.7088 7.04225H51.8497C52.1689 6.55399 52.5163 6.19718 52.8919 5.97183C53.2675 5.74648 53.8121 5.6338 54.5257 5.6338H56.9201V7.60564H54.8074C53.8309 7.60564 53.0703 7.87793 52.5257 8.42253C51.9811 8.94836 51.7088 9.70892 51.7088 10.7042V19.7183H49.5962Z" fill="white"/>
<path d="M81.8543 19.7183H77.8825L76.3895 15.3521H67.967L66.474 19.7183H62.5022L69.5163 0H74.8402L81.8543 19.7183ZM71.9107 3.88732L69.0937 12.0845H75.2628L72.474 3.88732H71.9107Z" fill="white"/>
<path d="M86.3801 19.7183H82.7181V0H86.3801V19.7183Z" fill="white"/>
</svg>

<svg xmlns="http://www.w3.org/2000/svg" width="87" height="20" fill="none" viewBox="0 0 87 20"><path fill="#fff" d="M2.254 19.718H0V0h2.254zm3.105 0V5.634h1.83l.282 1.55h.141q.564-.705 1.69-1.269 1.128-.563 2.536-.563 1.605 0 2.873.76a5.16 5.16 0 0 1 2.028 2.085q.732 1.353.732 3.07v8.451H15.36v-8.45q0-1.1-.507-2a3.7 3.7 0 0 0-1.38-1.409 3.6 3.6 0 0 0-1.916-.535q-1.098 0-2.056.563a4.2 4.2 0 0 0-1.493 1.437 3.74 3.74 0 0 0-.536 1.944v8.45zm14.938 0V5.634h1.831l.282 1.55h.14q.564-.705 1.69-1.269 1.128-.563 2.536-.563 1.605 0 2.873.76a5.16 5.16 0 0 1 2.028 2.085q.733 1.353.733 3.07v8.451h-2.113v-8.45q0-1.1-.507-2a3.7 3.7 0 0 0-1.38-1.409 3.6 3.6 0 0 0-1.916-.535q-1.098 0-2.056.563a4.2 4.2 0 0 0-1.493 1.437 3.74 3.74 0 0 0-.535 1.944v8.45zM41.151 20q-1.887 0-3.437-.93t-2.45-2.591q-.874-1.662-.874-3.803t.874-3.803q.9-1.662 2.45-2.591t3.437-.93q1.802 0 3.296.873a6.17 6.17 0 0 1 2.338 2.423q.845 1.521.845 3.465 0 1.125-.141 1.549H36.503q.198 1.972 1.521 3.183 1.324 1.183 3.127 1.183 1.267 0 2.253-.591a3.9 3.9 0 0 0 1.55-1.662h2.253q-.732 2.028-2.31 3.126-1.548 1.1-3.746 1.099m4.366-8.31q-.113-1.916-1.352-3.127-1.21-1.24-3.014-1.24-1.887 0-3.155 1.24-1.268 1.212-1.493 3.127zm4.079 8.028V5.634h1.831l.282 1.408h.14q.48-.732 1.043-1.07t1.634-.338h2.394v1.972h-2.113q-1.465 0-2.281.817-.817.788-.817 2.281v9.014zm32.258 0h-3.972l-1.493-4.366h-8.422l-1.493 4.366h-3.972L69.516 0h5.324zm-9.943-15.83-2.817 8.197h6.169l-2.789-8.198zm14.469 15.83h-3.662V0h3.662z"/></svg>
